packages/sources/icons/src/vitamix/calendar-date-fill.svg

<svg width="16" height="16" viewBox="0 0 16 16" xmlns="http://www.w3.org/2000/svg"><path d="M11.3276 2.66296H13.9936C14.3617 2.66296 14.6601 2.96136 14.6601 3.32946V13.9935C14.6601 14.3616 14.3617 14.66 13.9936 14.66H1.99658C1.62848 14.66 1.33008 14.3616 1.33008 13.9935V3.32946C1.33008 2.96136 1.62848 2.66296 1.99658 2.66296H4.66258V1.32996H5.99558V2.66296H9.99458V1.32996H11.3276V2.66296ZM5.51263 12.0721C6.11924 12.0721 6.60675 11.9198 6.97515 11.6151C7.34355 11.3105 7.52775 10.9057 7.52775 10.4006C7.52775 10.0882 7.44899 9.81742 7.29148 9.58831C7.13397 9.3592 6.89509 9.18737 6.57486 9.07281C6.83261 8.95565 7.04089 8.78773 7.1997 8.56903C7.35852 8.35034 7.43793 8.11081 7.43793 7.85046C7.43793 7.34538 7.2674 6.94899 6.92633 6.6613C6.58527 6.37362 6.11404 6.22977 5.51263 6.22977C5.16636 6.22977 4.84938 6.29616 4.56169 6.42894C4.274 6.56172 4.0501 6.74592 3.88998 6.98154C3.72987 7.21716 3.64981 7.48337 3.64981 7.78017H4.77843C4.77843 7.59011 4.85133 7.43585 4.99713 7.31739C5.14293 7.19893 5.32387 7.1397 5.53996 7.1397C5.77949 7.1397 5.96759 7.20349 6.10427 7.33106C6.24096 7.45863 6.3093 7.63697 6.3093 7.86608C6.3093 8.103 6.24031 8.29306 6.10232 8.43625C5.96434 8.57944 5.75215 8.65104 5.46576 8.65104H4.86435V9.53363H5.46186C6.0867 9.53363 6.39912 9.81742 6.39912 10.385C6.39912 10.6193 6.32297 10.8074 6.17066 10.9493C6.01836 11.0912 5.80813 11.1621 5.53996 11.1621C5.30565 11.1621 5.10843 11.0944 4.94831 10.9591C4.7882 10.8237 4.70814 10.6492 4.70814 10.4358H3.57952C3.57952 10.9278 3.75981 11.3236 4.1204 11.623C4.48098 11.9224 4.94506 12.0721 5.51263 12.0721ZM10.2146 12.0721C10.842 12.0721 11.3185 11.8638 11.6439 11.4472C11.9693 11.0307 12.1321 10.4292 12.1321 9.64298V8.59637C12.1243 7.83354 11.9563 7.2484 11.6283 6.84095C11.3002 6.4335 10.8264 6.22977 10.2068 6.22977C9.58713 6.22977 9.11264 6.43545 8.78329 6.84681C8.45395 7.25816 8.28928 7.86087 8.28928 8.65495V9.70156C8.29709 10.4644 8.46501 11.0502 8.79306 11.4589C9.1211 11.8677 9.59494 12.0721 10.2146 12.0721ZM10.2146 11.1621C9.936 11.1621 9.73357 11.0495 9.6073 10.8243C9.48103 10.5991 9.4179 10.2548 9.4179 9.79138V8.40891C9.42571 7.97413 9.49275 7.65455 9.61902 7.45017C9.74529 7.24579 9.94121 7.14361 10.2068 7.14361C10.4801 7.14361 10.6813 7.251 10.8101 7.46579C10.939 7.68058 11.0034 8.02359 11.0034 8.49483V9.84606C10.9982 10.2913 10.9344 10.6219 10.8121 10.838C10.6897 11.0541 10.4905 11.1621 10.2146 11.1621ZM2.66308 5.32896V13.3203H13.3271V5.32896H2.66308Z"/></svg>

<svg width="16" height="16" xmlns="http://www.w3.org/2000/svg"><path d="M11.328 2.663h2.666c.368 0 .666.298.666.666v10.665a.666.666 0 0 1-.666.666H1.997a.666.666 0 0 1-.667-.667V3.33c0-.368.298-.666.667-.666h2.666V1.33h1.333v1.333h3.999V1.33h1.333v1.333Zm-5.815 9.41c.606 0 1.094-.153 1.462-.458.369-.305.553-.71.553-1.214 0-.313-.079-.584-.237-.813-.157-.229-.396-.4-.716-.515.258-.117.466-.285.625-.504.159-.219.238-.458.238-.719 0-.505-.17-.901-.512-1.189-.34-.287-.812-.431-1.413-.431-.347 0-.664.066-.951.199a1.6 1.6 0 0 0-.672.553c-.16.235-.24.501-.24.798h1.128c0-.19.073-.344.22-.463a.833.833 0 0 1 .542-.177c.24 0 .428.063.564.191.137.128.205.306.205.535 0 .237-.069.427-.207.57-.138.143-.35.215-.636.215h-.602v.883h.598c.625 0 .937.283.937.851a.735.735 0 0 1-.228.564c-.153.142-.363.213-.631.213a.885.885 0 0 1-.592-.203.654.654 0 0 1-.24-.523H3.58c0 .492.18.888.54 1.187.361.3.825.45 1.393.45Zm4.702 0c.627 0 1.104-.21 1.429-.626.325-.416.488-1.018.488-1.804V8.596c-.008-.762-.176-1.348-.504-1.755-.328-.407-.802-.611-1.421-.611-.62 0-1.094.205-1.424.617-.329.411-.494 1.014-.494 1.808v1.047c.008.762.176 1.348.504 1.757.328.409.802.613 1.422.613Zm0-.91c-.279 0-.481-.114-.608-.339-.126-.225-.19-.57-.19-1.033V8.41c.009-.435.076-.754.202-.959.126-.204.322-.306.588-.306.273 0 .474.107.603.322.129.215.193.558.193 1.029v1.351c-.005.445-.069.776-.19.992-.123.216-.322.324-.598.324ZM2.663 5.328v7.991h10.664V5.33H2.663Z"/></svg>
